X:1
T:Title
%%score { 1 | 2 }
L:1/8
M:4/4
K:C
V:1 treble nm="Grand Piano"
V:2 bass 
V:1
 z4 z2[Q:1/4=100] [Ge]>[Fd] | [Ec]2 [EG]2 [EG]2 [Gc]2 | [GB]2 A4 A2 | G2 [Gc]2 [FB]2 [Ec]2 | %4
[M:3/4] [Gd]6 |[M:1/4] [Ge]>[Fd] |[M:4/4] [Ec]2 [EG]2 [EG]2 [Gc]2 | [GB]2 A4 A2 | G2 c2 B2 d2 | %9
[M:3/4] [Ec]6 |[M:1/4] [DGB]>[DAc] |[M:4/4] [DBd]3 [DBd] [DBd]2 [DAc]2 | %12
 [DGB]3 [DAc] [DBd]2 [DGB]2 | [D^FA]2 [Fe]2 [Gd]2 [DAc]2 | [DGB]6 [DGB]>[DAc] | %15
 [DBd]3 [DBd] [DAc]2 [DGB]2 | [CGc]3 [Gd] [Ge]2 [EAc]2 | [DGB]2 [Gd]2 [^Fc]2 [FA]2 |[M:3/4] G6 | %19
[M:1/4] [Ge]>[Fd] |[M:4/4] [Ec]2 [EG]2 [EG]2 [Gc]2 | [GB]2 A4 A2 | G2 c2 B2 d2 | %23
[M:7/4] [Ec]6 z2 z2 z4 |] %24
V:2
 z4 z2 [C,C]>[C,C] | [C,C]2 [C,C]2 [C,C]2 [E,C]2 | [F,C]2 [F,CF]4 [F,CF]2 | %3
 [G,CE]2 [E,C]2 [D,G,]2 [C,G,]2 |[M:3/4] [G,B,]6 |[M:1/4] [C,C]>[C,C] | %6
[M:4/4] [C,C]2 [C,C]2 [C,C]2 [E,C]2 | [F,C]2[K:treble] [F,CF]4 [F,CF]2 | %8
 [G,CE]2 [G,E]2 [G,D]2 [G,F]2 |[M:3/4][K:bass] [C,G,]6 |[M:1/4] G,>G, |[M:4/4] G,3 G, G,2 G,2 | %12
 G,3 G, G,2 G,2 | D,2 [D,C]2 [D,B,]2 D,2 | G,6 G,>G, | G,3 G, G,2 G,2 | E,3 [D,B,] [C,C]2 C,2 | %17
 D,2 [D,B,]2 [D,A,]2 [D,C]2 |[M:3/4] [G,B,]6 |[M:1/4] [C,C]>[C,C] | %20
[M:4/4] [C,C]2 [C,C]2 [C,C]2 [E,C]2 | [F,C]2[K:treble] [F,CF]4 [F,CF]2 | %22
 [G,CE]2 [G,E]2 [G,D]2 [G,F]2 |[M:7/4][K:bass] [C,G,]6 z2 z2 z4 |] %24

